assets/Woman artist/Medium-Dark/Flat/woman_artist_flat_medium-dark.svg

<svg width="32" height="32" viewBox="0 0 32 32" fill="none" xmlns="http://www.w3.org/2000/svg">
<path d="M23.49 10.9543C23.49 11.474 23.3799 11.9536 23.1698 12.3833C23.0997 12.5233 23.1097 12.6931 23.1798 12.843C23.3799 13.2728 23.5 13.7524 23.5 14.2521C23.5 16.0209 22.059 17.46 20.2879 17.46H11.7121C9.94096 17.46 8.5 16.0209 8.5 14.2521C8.5 13.7424 8.61007 13.2628 8.82021 12.843C8.89026 12.6931 8.89026 12.5233 8.82021 12.3833C8.62008 11.9436 8.5 11.464 8.5 10.9543C8.5 10.2847 8.70013 9.66516 9.04036 9.13551C9.39059 8.60586 9.90093 7.99627 9.90093 7.36669V7.3567C9.90093 5.53791 11.0417 4.06889 12.8629 4.06889C13.043 4.06889 13.2131 3.98894 13.3132 3.83904C13.9136 2.9996 14.8943 2.45996 15.995 2.45996C17.1057 2.45996 18.0764 3.00959 18.6768 3.83904C18.7769 3.98894 18.947 4.06889 19.1271 4.06889C20.9383 4.06889 22.0991 5.53791 22.0991 7.3567V7.36669C22.0891 7.99627 22.5894 8.61586 22.9396 9.13551C23.2899 9.65516 23.49 10.2847 23.49 10.9543Z" fill="#2D242D"/>
<path d="M8.99996 18.0145C10.9025 16.4434 13.342 15.5 16 15.5C18.658 15.5 21.0974 16.4434 23 18.0145L25.1937 23.9782L23 30H8.99996L7.08008 23.9782L8.99996 18.0145Z" fill="#E6E6E6"/>
<path d="M16 20.4727C16.0019 21.8717 17.1812 22.9999 18.62 22.9999V21.3869C18.62 20.8294 18.433 20.3147 18.1171 19.8971C19.465 19.698 20.5 18.5711 20.5 17.2142C20.5 15.717 19.24 14.5 17.69 14.5H14.31C12.76 14.5 11.5 15.717 11.5 17.2142C11.5 18.5711 12.535 19.698 13.8829 19.8971C13.567 20.3147 13.38 20.8294 13.38 21.3869V22.9999C14.8188 22.9999 15.9981 21.8717 16 20.4727Z" fill="#F92F60"/>
<path d="M5.00018 26.5C4.98028 23.09 6.5822 20.03 8.99999 18V29.98L5.02008 30L5.00018 26.5Z" fill="#D3D3D3"/>
<path d="M23 30V18C25.44 20.0234 27 23.0785 27 26.4942V30H23Z" fill="#D3D3D3"/>
<path d="M27.5 23.1001C28.05 23.1001 28.5 23.5446 28.5 24.0879V26.3501H26.5V24.0879C26.5 23.5446 26.94 23.1001 27.5 23.1001Z" fill="#8B5C56"/>
<path d="M25.2121 20.75C24.9708 22.1148 24.9342 23.5141 25.1083 24.9L25.6583 29.27C25.6983 29.55 25.9383 29.77 26.2183 29.77C26.5083 29.77 26.7483 29.56 26.7783 29.27L27.3283 24.9C27.4959 23.5126 27.4613 22.1162 27.2215 20.75L26.1992 20.3555L25.2121 20.75Z" fill="#8C5543"/>
<path d="M27.2266 20.75C27.1066 20.08 27.01 19.41 26.8 18.76H25.6C25.38 19.41 25.327 20.08 25.207 20.75H27.2266Z" fill="#E6E6E6"/>
<path d="M24.6841 16.75L25.3867 16.5469C25.6867 16.5469 26.0703 16.9852 26.0703 17.2852C26.0703 17.7252 26.1967 17.7969 26.6367 17.7969C27.0592 17.8065 27.4369 17.7973 27.481 17.391C27.4837 17.427 27.485 17.4635 27.485 17.5C27.485 18.33 26.815 19 25.985 19C25.155 19 24.485 18.33 24.485 17.5C24.485 17.25 24.545 17.02 24.655 16.81C24.6645 16.7898 24.6743 16.7698 24.6841 16.75Z" fill="#F3AD61"/>
<path d="M27.6549 15.07C27.5949 15.02 27.5249 15 27.4549 15C26.2449 15.08 25.2249 15.65 24.6849 16.75H25.3549C25.6549 16.75 25.8949 16.99 25.8949 17.29C25.8949 17.73 26.2349 18.11 26.6749 18.11C27.1149 18.12 27.4649 17.77 27.4849 17.34C27.4849 17.29 27.4749 17.24 27.4649 17.19V17.18C27.3149 16.53 27.4149 15.98 27.7249 15.43C27.7849 15.31 27.7549 15.16 27.6549 15.07Z" fill="#5092FF"/>
<path d="M24.7018 24.74C24.3284 24.74 24.0096 25.06 24.0005 25.47C23.9913 25.74 24.1189 25.98 24.3101 26.12C24.128 26.25 24.0005 26.48 24.0005 26.74C24.0005 27 24.1189 27.23 24.3101 27.36C24.128 27.49 24.0005 27.72 24.0005 27.98C24.0005 28.24 24.1189 28.47 24.3101 28.6C24.1189 28.74 24.0005 28.98 24.0005 29.25C24.0096 29.66 24.3284 29.98 24.7018 29.98H27.7076C28.1448 29.98 28.5 29.59 28.5 29.11V25.6C28.5 25.12 28.1448 24.73 27.7076 24.73H24.7018V24.74Z" fill="#966661"/>
<path d="M4.91851 29.9999H14.5251L12.3751 24.0999C11.7387 22.3594 10.148 21.1618 8.3321 21.0151C8.2074 21.005 7.98505 21.0378 7.85941 21.0507C5.1349 21.332 2.82851 24.2399 3.93851 27.3099L4.91851 29.9999Z" fill="#FFCE7C"/>
<path d="M8.38502 21.02C8.24502 21.01 8.09502 21 7.95502 21C4.69502 21 2.42502 24.24 3.53502 27.31L4.51502 30H5.40502L4.42502 27.31C3.36502 24.39 5.37502 21.3 8.38502 21.02Z" fill="#E19747"/>
<path d="M8.24 25.24C8.92483 25.24 9.48 24.6848 9.48 24C9.48 23.3152 8.92483 22.76 8.24 22.76C7.55517 22.76 7 23.3152 7 24C7 24.6848 7.55517 25.24 8.24 25.24Z" fill="#F92F60"/>
<path d="M11.24 28.24C11.9248 28.24 12.48 27.6848 12.48 27C12.48 26.3152 11.9248 25.76 11.24 25.76C10.5552 25.76 10 26.3152 10 27C10 27.6848 10.5552 28.24 11.24 28.24Z" fill="#5092FF"/>
<path d="M7.24 29.1299C7.92483 29.1299 8.48 28.5747 8.48 27.8899C8.48 27.2051 7.92483 26.6499 7.24 26.6499C6.55517 26.6499 6 27.2051 6 27.8899C6 28.5747 6.55517 29.1299 7.24 29.1299Z" fill="#86D72F"/>
<path d="M16 18.5C14.9 18.5 14 17.5924 14 16.4832V14.5168C14 13.4076 14.9 12.5 16 12.5C17.1 12.5 18 13.4076 18 14.5168V16.4832C18 17.5924 17.1 18.5 16 18.5Z" fill="#8B5C56"/>
<path d="M13.25 10.625C13.25 11.5225 12.5225 12.25 11.625 12.25C10.7275 12.25 10 11.5225 10 10.625C10 9.72754 10.7275 9 11.625 9C12.5225 9 13.25 9.72754 13.25 10.625Z" fill="#8B5C56"/>
<path d="M22 10.625C22 11.5225 21.2725 12.25 20.375 12.25C19.4775 12.25 18.75 11.5225 18.75 10.625C18.75 9.72754 19.4775 9 20.375 9C21.2725 9 22 9.72754 22 10.625Z" fill="#8B5C56"/>
<path d="M19.8756 7.28394H16.7214C15.4677 7.28394 14.3035 6.65672 13.597 5.60462C13.4776 5.44275 13.2189 5.4731 13.1393 5.66531L13.0697 5.85753C12.8408 6.41393 12.4229 6.85905 11.8955 7.09173C11.8657 7.11196 11.8259 7.12208 11.796 7.1322C11.5672 7.24348 11.0199 7.61778 11 8.56873L11.1294 11.7655C11.2488 14.5981 13.3881 16.5 16.005 16.5C18.6119 16.5 20.7612 14.5981 20.8806 11.7655L21 8.72047C20.9801 7.38511 20.0547 7.29406 19.8756 7.28394Z" fill="#966661"/>
<path d="M13.3083 9.25C13.8683 9.25 14.3283 9.63 14.6183 10.07C14.3625 10.1479 14.1149 10.2188 13.87 10.2891C13.4543 10.4083 13.0462 10.5253 12.6183 10.67L12.1383 10.24C11.9383 10.07 11.9583 9.75 12.1783 9.6C12.4883 9.37 12.9083 9.25 13.3083 9.25Z" fill="black"/>
<path d="M18.5283 9.25C17.9683 9.25 17.5083 9.63 17.2183 10.07C17.4564 10.1435 17.6896 10.2109 17.9209 10.2778C18.3502 10.4019 18.7729 10.524 19.2083 10.68L19.6883 10.25C19.8883 10.07 19.8783 9.75 19.6583 9.6C19.3483 9.37 18.9283 9.25 18.5283 9.25Z" fill="black"/>
<path d="M12.1382 10.3901C12.2882 9.79009 12.8382 9.34009 13.4882 9.34009C14.1582 9.34009 14.7282 9.83009 14.8582 10.4601C14.8882 10.6001 14.7682 10.7301 14.6282 10.7301H12.4082C12.2282 10.7301 12.0982 10.5601 12.1382 10.3901Z" fill="white"/>
<path d="M19.6983 10.3901C19.5483 9.79009 18.9983 9.34009 18.3483 9.34009C17.6683 9.34009 17.1083 9.83009 16.9783 10.4601C16.9483 10.6001 17.0683 10.7301 17.2083 10.7301H19.4283C19.6083 10.7301 19.7383 10.5601 19.6983 10.3901Z" fill="white"/>
<path d="M12.7983 10.5001C12.7983 10.0101 13.1983 9.61011 13.6883 9.61011C14.1783 9.61011 14.5783 10.0101 14.5783 10.5001C14.5783 10.5901 14.5683 10.6601 14.5483 10.7401H12.8283C12.8083 10.6601 12.7983 10.5801 12.7983 10.5001Z" fill="#7D4533"/>
<path d="M19.0283 10.5001C19.0283 10.0101 18.6283 9.61011 18.1383 9.61011C17.6483 9.61011 17.2483 10.0101 17.2483 10.5001C17.2483 10.5534 17.2572 10.6068 17.2661 10.6601C17.2705 10.6868 17.275 10.7134 17.2783 10.7401H18.9983C19.0183 10.6601 19.0283 10.5801 19.0283 10.5001Z" fill="#7D4533"/>
<path d="M13.6883 9.98999C13.9683 9.98999 14.1983 10.22 14.1983 10.5C14.1983 10.58 14.1783 10.66 14.1383 10.74H13.2383C13.1983 10.67 13.1783 10.59 13.1783 10.5C13.1783 10.22 13.4083 9.98999 13.6883 9.98999Z" fill="black"/>
<path d="M18.1483 9.98999C17.8683 9.98999 17.6383 10.22 17.6383 10.5C17.6383 10.58 17.6583 10.66 17.6983 10.74H18.5983C18.6383 10.67 18.6583 10.59 18.6583 10.5C18.6583 10.22 18.4283 9.98999 18.1483 9.98999Z" fill="black"/>
<path d="M13.5483 10.15C13.5483 10.2384 13.4766 10.31 13.3883 10.31C13.2999 10.31 13.2283 10.2384 13.2283 10.15C13.2283 10.0616 13.2999 9.98999 13.3883 9.98999C13.4766 9.98999 13.5483 10.0616 13.5483 10.15Z" fill="white"/>
<path d="M17.9982 10.15C17.9982 10.2384 17.9266 10.31 17.8382 10.31C17.7499 10.31 17.6782 10.2384 17.6782 10.15C17.6782 10.0616 17.7499 9.98999 17.8382 9.98999C17.9266 9.98999 17.9982 10.0616 17.9982 10.15Z" fill="white"/>
<path d="M15.8651 13.9625C15.3522 13.9625 14.8787 13.8282 14.4742 13.5821C14.3361 13.5037 14.1881 13.6828 14.2769 13.8282C14.6123 14.4213 15.2042 14.813 15.875 14.813C16.5458 14.813 17.1278 14.4213 17.4731 13.8282C17.5619 13.6828 17.4139 13.5037 17.2758 13.5821C16.8615 13.8282 16.3781 13.9625 15.8651 13.9625Z" fill="#990838"/>
<path d="M15.519 10.7889L15.0217 12.5331C14.9241 12.8969 15.168 13.25 15.5093 13.25H16.2407C16.582 13.25 16.8259 12.8862 16.7283 12.5331L16.231 10.7889C16.1237 10.4037 15.6263 10.4037 15.519 10.7889Z" fill="#75443E"/>
<path d="M12.0341 8.72966C12.0841 8.80966 12.1741 8.85965 12.2641 8.85965C12.2874 8.85965 12.314 8.85288 12.3441 8.84525C12.3657 8.83976 12.389 8.83384 12.4141 8.82966C12.4141 8.82966 13.1441 8.42965 13.9441 8.56965C14.0841 8.58965 14.2241 8.49966 14.2541 8.34966C14.2741 8.20966 14.1841 8.06966 14.0341 8.03966C13.0757 7.86715 12.246 8.31 12.1433 8.36479C12.1388 8.36717 12.1341 8.36966 12.1341 8.36966C12.0041 8.43966 11.9641 8.59966 12.0341 8.72966Z" fill="#372128"/>
<path d="M19.1841 8.82966C19.2241 8.84966 19.2741 8.85965 19.3141 8.85965C19.4041 8.85965 19.4941 8.80966 19.5641 8.72966C19.6341 8.60966 19.5941 8.43966 19.4641 8.36966C19.4641 8.36966 19.4593 8.36717 19.4549 8.36479C19.3522 8.31 18.5224 7.86715 17.5641 8.03966C17.4141 8.06966 17.3141 8.19966 17.3441 8.34966C17.3741 8.49966 17.5141 8.59965 17.6541 8.56965C18.3845 8.4327 19.0482 8.76257 19.1658 8.82099C19.177 8.82655 19.1841 8.82966 19.1841 8.82966Z" fill="#372128"/>
<path d="M8.495 5.72C8.495 5.27 8.725 4.86 9.115 4.63L9.38499 4.47C12.045 2.85 15.105 2 18.225 2C20.585 2 22.495 3.91 22.495 6.27C22.495 6.67 22.165 7 21.765 7H9.775C9.065 7 8.495 6.43 8.495 5.72Z" fill="#212121"/>
</svg>

<svg xmlns="http://www.w3.org/2000/svg" width="32" height="32" fill="none"><path fill="#2D242D" d="M23.49 10.954c0 .52-.11 1-.32 1.43a.53.53 0 0 0 .01.459c.2.43.32.91.32 1.41a3.214 3.214 0 0 1-3.212 3.207h-8.576A3.214 3.214 0 0 1 8.5 14.252c0-.51.11-.99.32-1.409.07-.15.07-.32 0-.46-.2-.44-.32-.919-.32-1.429 0-.67.2-1.289.54-1.818.35-.53.86-1.14.86-1.77v-.01c0-1.818 1.142-3.287 2.963-3.287.18 0 .35-.08.45-.23a3.29 3.29 0 0 1 2.682-1.379c1.11 0 2.081.55 2.682 1.379.1.15.27.23.45.23 1.811 0 2.972 1.469 2.972 3.288v.01c-.01.63.49 1.249.84 1.769.35.52.551 1.149.551 1.818Z"/><path fill="#E6E6E6" d="M9 18.015a10.957 10.957 0 0 1 7-2.515c2.658 0 5.097.943 7 2.515l2.194 5.963L23 30H9l-1.92-6.022L9 18.015Z"/><path fill="#F92F60" d="M16 20.473C16.002 21.872 17.181 23 18.62 23v-1.613a2.46 2.46 0 0 0-.503-1.49c1.348-.199 2.383-1.326 2.383-2.683 0-1.497-1.26-2.714-2.81-2.714h-3.38c-1.55 0-2.81 1.217-2.81 2.714 0 1.357 1.035 2.484 2.383 2.683a2.46 2.46 0 0 0-.503 1.49V23c1.439 0 2.618-1.128 2.62-2.527Z"/><path fill="#D3D3D3" d="M5 26.5c-.02-3.41 1.582-6.47 4-8.5v11.98L5.02 30 5 26.5ZM23 30V18c2.44 2.023 4 5.078 4 8.494V30h-4Z"/><path fill="#8B5C56" d="M27.5 23.1c.55 0 1 .445 1 .988v2.262h-2v-2.262a.99.99 0 0 1 1-.988Z"/><path fill="#8C5543" d="M25.212 20.75a13.893 13.893 0 0 0-.104 4.15l.55 4.37c.04.28.28.5.56.5.29 0 .53-.21.56-.5l.55-4.37a14.163 14.163 0 0 0-.107-4.15l-1.022-.395-.987.395Z"/><path fill="#E6E6E6" d="M27.227 20.75c-.12-.67-.217-1.34-.427-1.99h-1.2c-.22.65-.273 1.32-.393 1.99h2.02Z"/><path fill="#F3AD61" d="m24.684 16.75.703-.203c.3 0 .683.438.683.738 0 .44.127.512.567.512.422.01.8 0 .844-.406A1.498 1.498 0 0 1 25.985 19a1.498 1.498 0 0 1-1.33-2.19l.03-.06Z"/><path fill="#5092FF" d="M27.655 15.07a.306.306 0 0 0-.2-.07c-1.21.08-2.23.65-2.77 1.75h.67c.3 0 .54.24.54.54 0 .44.34.82.78.82.44.01.79-.34.81-.77 0-.05-.01-.1-.02-.15v-.01c-.15-.65-.05-1.2.26-1.75.06-.12.03-.27-.07-.36Z"/><path fill="#966661" d="M24.702 24.74c-.374 0-.692.32-.702.73-.009.27.119.51.31.65a.765.765 0 0 0-.31.62c0 .26.119.49.31.62a.765.765 0 0 0-.31.62c0 .26.119.49.31.62a.798.798 0 0 0-.31.65c.01.41.328.73.702.73h3.006c.437 0 .792-.39.792-.87V25.6c0-.48-.355-.87-.792-.87h-3.006v.01Z"/><path fill="#FFCE7C" d="M4.919 30h9.606l-2.15-5.9a4.72 4.72 0 0 0-4.043-3.085c-.125-.01-.347.023-.473.036-2.724.281-5.03 3.189-3.92 6.259l.98 2.69Z"/><path fill="#E19747" d="M8.385 21.02c-.14-.01-.29-.02-.43-.02-3.26 0-5.53 3.24-4.42 6.31l.98 2.69h.89l-.98-2.69c-1.06-2.92.95-6.01 3.96-6.29Z"/><path fill="#F92F60" d="M8.24 25.24a1.24 1.24 0 1 0 0-2.48 1.24 1.24 0 0 0 0 2.48Z"/><path fill="#5092FF" d="M11.24 28.24a1.24 1.24 0 1 0 0-2.48 1.24 1.24 0 0 0 0 2.48Z"/><path fill="#86D72F" d="M7.24 29.13a1.24 1.24 0 1 0 0-2.48 1.24 1.24 0 0 0 0 2.48Z"/><path fill="#8B5C56" d="M16 18.5c-1.1 0-2-.908-2-2.017v-1.966c0-1.11.9-2.017 2-2.017s2 .908 2 2.017v1.966c0 1.11-.9 2.017-2 2.017ZM13.25 10.625a1.625 1.625 0 1 1-3.25 0 1.625 1.625 0 0 1 3.25 0ZM22 10.625a1.625 1.625 0 1 1-3.25 0 1.625 1.625 0 0 1 3.25 0Z"/><path fill="#966661" d="M19.876 7.284H16.72a3.76 3.76 0 0 1-3.124-1.68.266.266 0 0 0-.458.061l-.07.193a2.284 2.284 0 0 1-1.174 1.234c-.03.02-.07.03-.099.04-.229.111-.776.486-.796 1.437l.13 3.196c.119 2.833 2.258 4.735 4.875 4.735 2.607 0 4.756-1.902 4.876-4.735L21 8.72c-.02-1.335-.945-1.426-1.124-1.436Z"/><path fill="#000" d="M13.308 9.25c.56 0 1.02.38 1.31.82-.255.078-.503.149-.748.22-.416.118-.824.235-1.252.38l-.48-.43c-.2-.17-.18-.49.04-.64.31-.23.73-.35 1.13-.35ZM18.528 9.25c-.56 0-1.02.38-1.31.82.238.073.472.14.703.208.43.124.852.246 1.287.402l.48-.43c.2-.18.19-.5-.03-.65-.31-.23-.73-.35-1.13-.35Z"/><path fill="#fff" d="M12.138 10.39c.15-.6.7-1.05 1.35-1.05.67 0 1.24.49 1.37 1.12.03.14-.09.27-.23.27h-2.22c-.18 0-.31-.17-.27-.34ZM19.698 10.39c-.15-.6-.7-1.05-1.35-1.05-.68 0-1.24.49-1.37 1.12-.03.14.09.27.23.27h2.22c.18 0 .31-.17.27-.34Z"/><path fill="#7D4533" d="M12.798 10.5c0-.49.4-.89.89-.89a.892.892 0 0 1 .86 1.13h-1.72a.986.986 0 0 1-.03-.24ZM19.028 10.5c0-.49-.4-.89-.89-.89s-.89.4-.89.89c0 .053.01.107.018.16.005.027.009.053.012.08h1.72c.02-.08.03-.16.03-.24Z"/><path fill="#000" d="M13.688 9.99a.512.512 0 0 1 .45.75h-.9a.512.512 0 0 1 .45-.75ZM18.148 9.99a.512.512 0 0 0-.45.75h.9a.512.512 0 0 0-.45-.75Z"/><path fill="#fff" d="M13.548 10.15a.16.16 0 1 1-.32 0 .16.16 0 0 1 .32 0ZM17.998 10.15a.16.16 0 1 1-.32 0 .16.16 0 0 1 .32 0Z"/><path fill="#990838" d="M15.865 13.963c-.513 0-.986-.135-1.39-.38-.139-.08-.287.1-.198.245.335.593.927.985 1.598.985.67 0 1.253-.392 1.598-.985.089-.145-.06-.324-.197-.246-.415.246-.898.38-1.41.38Z"/><path fill="#75443E" d="m15.519 10.789-.497 1.744c-.098.364.146.717.487.717h.732c.341 0 .585-.364.487-.717l-.497-1.744a.364.364 0 0 0-.712 0Z"/><path fill="#372128" d="M12.034 8.73c.05.08.14.13.23.13.023 0 .05-.007.08-.015a.84.84 0 0 1 .07-.015s.73-.4 1.53-.26c.14.02.28-.07.31-.22a.276.276 0 0 0-.22-.31c-.958-.173-1.788.27-1.89.325l-.01.005c-.13.07-.17.23-.1.36ZM19.184 8.83c.04.02.09.03.13.03.09 0 .18-.05.25-.13.07-.12.03-.29-.1-.36l-.01-.005c-.102-.055-.932-.498-1.89-.325-.15.03-.25.16-.22.31s.17.25.31.22c.73-.137 1.394.193 1.512.251a.468.468 0 0 0 .018.009Z"/><path fill="#212121" d="M8.495 5.72c0-.45.23-.86.62-1.09l.27-.16c2.66-1.62 5.72-2.47 8.84-2.47 2.36 0 4.27 1.91 4.27 4.27 0 .4-.33.73-.73.73H9.775c-.71 0-1.28-.57-1.28-1.28Z"/></svg>
